verbatimtex
\documentclass{book}
\usepackage{times}
\usepackage{amsmath}
\usepackage{amssymb}
\usepackage{amsfonts}
\usepackage{txfonts}
\begin{document}
etex;

beginfig(1)

endfig;

beginfig(2)

endfig;

end
